img/icons/svg/color/zel.svg

<svg xmlns="http://www.w3.org/2000/svg" width="32" height="32" viewBox="0 0 32 32">
  <g fill="none" fill-rule="evenodd">
    <circle cx="16" cy="16" r="16" fill="#183C87" fill-rule="nonzero"/>
    <path fill="#FFF" d="M5,15.6153846 L9.49462366,13.0769231 L13.9892473,15.6153846 L13.9892473,20.4615385 L9.49462366,23 L5,20.4615385 L5,15.6153846 Z M18.0107527,15.6153846 L22.5053763,13.0769231 L27,15.6153846 L27,20.4615385 L22.5053763,23 L18.0107527,20.4615385 L18.0107527,15.6153846 Z M17.5376344,19.8255688 L15.9605735,20.6923077 L14.4623656,19.8689057 L14.4623656,15.2307692 L10.3620072,12.9149798 L10.3620072,11.2307692 L15.9605735,8 L21.5591398,11.2307692 L21.5591398,12.9595142 L17.5376344,15.2307692 L17.5376344,19.8255688 Z"/>
  </g>
</svg>

<svg xmlns="http://www.w3.org/2000/svg" width="32" height="32" viewBox="0 0 32 32"><g fill="none" fill-rule="evenodd"><circle cx="16" cy="16" r="16" fill="#183C87" fill-rule="nonzero"/><path fill="#FFF" d="M5 15.615l4.495-2.538 4.494 2.538v4.847L9.495 23 5 20.462v-4.847zm13.01 0l4.495-2.538L27 15.615v4.847L22.505 23l-4.494-2.538v-4.847zm-.472 4.21l-1.577.867-1.499-.823V15.23l-4.1-2.316V11.23L15.961 8l5.598 3.23v1.73l-4.021 2.27v4.596z"/></g></svg>
